Newaita-dark/apps/64/com.github.georgekap1an.chores.svg

<svg height="64" viewBox="0 0 64 64" width="64" xmlns="http://www.w3.org/2000/svg" xmlns:xlink="http://www.w3.org/1999/xlink"><linearGradient id="a" gradientUnits="userSpaceOnUse" x1="31.75304" x2="31.75304" y1="56.067872" y2="58.71396000006"><stop offset="0" stop-opacity=".27451"/><stop offset="1" stop-opacity="0"/></linearGradient><linearGradient id="b"><stop offset="0" stop-opacity=".313726"/><stop offset=".222222" stop-opacity=".27451"/><stop offset="1" stop-opacity="0"/></linearGradient><radialGradient id="c" cx="450.908936" cy="189.579361" gradientTransform="matrix(.00000035 -.156265 -.281277 -.0000002 100.292171 127.190665)" gradientUnits="userSpaceOnUse" r="21.166656" xlink:href="#b"/><radialGradient id="d" cx="450.908936" cy="189.579361" gradientTransform="matrix(-.00000035 .156265 .281277 .0000002 -36.786098 -15.054961)" gradientUnits="userSpaceOnUse" r="21.166656" xlink:href="#b"/><radialGradient id="e" cx="450.908936" cy="189.579361" gradientTransform="matrix(-.00000035 -.156265 .281277 -.0000002 -36.786098 127.190665)" gradientUnits="userSpaceOnUse" r="21.166656" xlink:href="#b"/><radialGradient id="f" cx="450.908936" cy="189.579361" gradientTransform="matrix(.00000035 .156265 -.281277 .0000002 100.292167 -15.054959)" gradientUnits="userSpaceOnUse" r="21.166656" xlink:href="#b"/><linearGradient id="g" gradientTransform="matrix(.150699 0 0 .434824 -11.708026 67.282696)" gradientUnits="userSpaceOnUse" x1="323.513245" x2="323.513245" y1="-141.414581" y2="-25.791676"><stop offset="0" stop-color="#8d6e63"/><stop offset="1" stop-color="#795548"/></linearGradient><linearGradient id="h" gradientUnits="userSpaceOnUse" x1="254" x2="254" y1="212.333328" y2="-115.75"><stop offset="0" stop-color="#e0e0e0"/><stop offset="1" stop-color="#eee"/></linearGradient><linearGradient id="i" gradientUnits="userSpaceOnUse" x1="31.753056" x2="31.753056" y1="56.06789790428" y2="5.792224912"><stop offset="0" stop-color="#424242"/><stop offset="1" stop-color="#616161"/></linearGradient><path d="m15.875 56.066406h31.753906v2.648438h-31.753906zm0 0" fill="url(#a)"/><path d="m47.628906 56.066406h5.292969v-2.644531h-5.292969zm0 0" fill="url(#c)"/><path d="m15.875 56.066406h-5.289062v2.648438h5.289062zm0 0" fill="url(#d)"/><path d="m15.875 56.066406h-5.289062v-2.644531h5.289062zm0 0" fill="url(#e)"/><path d="m47.628906 56.066406h5.292969v2.648438h-5.292969zm0 0" fill="url(#f)"/><path d="m13.230469 12.40625h37.046875c1.460937 0 2.644531 1.1875 2.644531 2.648438v38.367187c0 1.460937-1.183594 2.644531-2.644531 2.644531h-37.046875c-1.460938 0-2.644531-1.183594-2.644531-2.644531v-38.367187c0-1.460938 1.183593-2.648438 2.644531-2.648438zm0 0" fill="url(#g)"/><path d="m13.230469 12.59375c-1.464844 0-2.644531 1.179688-2.644531 2.644531v.332031c0-1.46875 1.179687-2.648437 2.644531-2.648437h37.046875c1.464844 0 2.644531 1.179687 2.644531 2.648437v-.332031c0-1.464843-1.179687-2.644531-2.644531-2.644531zm0 0" fill="#fff" fill-opacity=".392157"/><path d="m13.230469 55.917969c-1.464844 0-2.644531-1.179688-2.644531-2.644531v-.332032c0 1.464844 1.179687 2.644532 2.644531 2.644532h37.046875c1.464844 0 2.644531-1.179688 2.644531-2.644532v.332032c0 1.464843-1.179687 2.644531-2.644531 2.644531zm0 0" fill-opacity=".196078"/><path d="m105.833643-115.759477h296.346701c11.686384 0 21.15423 9.499093 21.15423 21.185477v306.908192c0 11.686384-9.467846 21.154229-21.15423 21.154229h-296.346701c-11.686384 0-21.154229-9.467845-21.154229-21.154229v-306.908192c0-11.686384 9.467845-21.185477 21.154229-21.185477zm0 0" fill="none" stroke="#212121" stroke-linecap="round" stroke-width="3" transform="matrix(.125012 0 0 .125012 0 26.877566)"/><path d="m126.987873-105.166739h254.006994c5.843192 0 10.592738 4.749547 10.592738 10.592739v296.315453c0 5.843192-4.749546 10.592739-10.592738 10.592739h-254.006994c-5.843192 0-10.561491-4.749547-10.561491-10.592739v-296.315453c0-5.843192 4.718299-10.592739 10.561491-10.592739zm0 0" fill="url(#h)" stroke="#212121" stroke-linecap="round" stroke-linejoin="round" stroke-width="3" transform="matrix(.125012 0 0 .125012 0 26.877566)"/><path d="m23.816406 5.792969c-.734375 0-1.324218.589843-1.324218 1.320312v1.324219h-3.96875c-.734376 0-1.324219.589844-1.324219 1.324219v5.292969c0 .730468.589843 1.320312 1.324219 1.320312h26.460937c.730469 0 1.320313-.589844 1.320313-1.320312v-5.292969c0-.734375-.589844-1.324219-1.320313-1.324219h-3.96875v-1.324219c0-.730469-.589844-1.320312-1.324219-1.320312zm0 0" fill="url(#i)"/><path d="m17.199219 15.054688v1.320312c0 .734375.589843 1.324219 1.324219 1.324219h26.460937c.730469 0 1.320313-.589844 1.320313-1.324219v-1.320312c0 .730468-.589844 1.320312-1.320313 1.320312h-26.460937c-.734376 0-1.324219-.589844-1.324219-1.320312zm0 0" fill-opacity=".235294"/><path d="m23.816406 5.792969c-.734375 0-1.324218.589843-1.324218 1.320312v.5c0-.734375.589843-1.324219 1.324218-1.324219h15.875c.734375 0 1.324219.589844 1.324219 1.324219v-.5c0-.730469-.589844-1.320312-1.324219-1.320312zm-5.292968 2.644531c-.734376 0-1.324219.589844-1.324219 1.324219v.496093c0-.734374.589843-1.324218 1.324219-1.324218h3.96875v-.496094zm22.492187 0v.496094h3.96875c.730469 0 1.320313.589844 1.320313 1.324218v-.496093c0-.734375-.589844-1.324219-1.320313-1.324219zm0 0" fill="#fff" fill-opacity=".313726"/><path d="m720.049387 175.140764c-22.202606 0-40.035549 17.832944-40.035549 39.91745v40.035549h-119.988548c-22.202605 0-40.035549 17.832944-40.035549 40.035549v160.024097c0 22.084507 17.832944 39.91745 40.035549 39.91745h800.002386c22.084506 0 39.91745-17.832943 39.91745-39.91745v-160.024097c0-22.202605-17.832944-40.035549-39.91745-40.035549h-119.988548v-40.035549c0-22.084506-17.832944-39.91745-40.035549-39.91745zm0 0" fill="none" stroke="#212121" stroke-linecap="round" stroke-linejoin="round" stroke-width="11.338583" transform="scale(.0330761)"/><path d="m14.554688 52.097656v.664063c0 .730469.589843 1.320312 1.320312 1.320312h31.753906c.734375 0 1.324219-.589843 1.324219-1.320312v-.664063c0 .734375-.589844 1.324219-1.324219 1.324219h-31.753906c-.730469 0-1.320312-.589844-1.320312-1.324219zm0 0" fill-opacity=".235294"/><g fill="#78909c"><path d="m25.136719 20.34375h19.847656c.730469 0 1.320313.59375 1.320313 1.324219s-.589844 1.324219-1.320313 1.324219h-19.847656c-.730469 0-1.320313-.59375-1.320313-1.324219s.589844-1.324219 1.320313-1.324219zm0 0"/><path d="m25.136719 28.285156h19.847656c.730469 0 1.320313.589844 1.320313 1.320313s-.589844 1.324219-1.320313 1.324219h-19.847656c-.730469 0-1.320313-.59375-1.320313-1.324219s.589844-1.320313 1.320313-1.320313zm0 0"/><path d="m25.136719 36.222656h19.847656c.730469 0 1.320313.59375 1.320313 1.324219s-.589844 1.320313-1.320313 1.320313h-19.847656c-.730469 0-1.320313-.589844-1.320313-1.320313s.589844-1.324219 1.320313-1.324219zm0 0"/><path d="m25.136719 44.160156h19.847656c.730469 0 1.320313.546875 1.320313 1.222656v.199219c0 .675781-.589844 1.222657-1.320313 1.222657h-19.847656c-.730469 0-1.320313-.546876-1.320313-1.222657v-.199219c0-.675781.589844-1.222656 1.320313-1.222656zm0 0"/><path d="m19.84375 26.960938c-1.464844 0-2.644531 1.179687-2.644531 2.644531 0 1.46875 1.179687 2.648437 2.644531 2.648437 1.46875 0 2.648438-1.179687 2.648438-2.648437 0-1.464844-1.179688-2.644531-2.648438-2.644531zm0 1.324218c.734375 0 1.324219.589844 1.324219 1.320313 0 .734375-.589844 1.324219-1.324219 1.324219-.730469 0-1.320312-.589844-1.320312-1.324219 0-.730469.589843-1.320313 1.320312-1.320313zm0 0"/><path d="m19.84375 34.898438c-1.464844 0-2.644531 1.179687-2.644531 2.648437 0 1.464844 1.179687 2.644531 2.644531 2.644531 1.46875 0 2.648438-1.179687 2.648438-2.644531 0-1.46875-1.179688-2.648437-2.648438-2.648437zm0 1.324218c.734375 0 1.324219.589844 1.324219 1.324219 0 .730469-.589844 1.320313-1.324219 1.320313-.730469 0-1.320312-.589844-1.320312-1.320313 0-.734375.589843-1.324219 1.320312-1.324219zm0 0"/><path d="m19.84375 42.835938c-1.464844 0-2.644531 1.179687-2.644531 2.648437 0 1.464844 1.179687 2.644531 2.644531 2.644531 1.46875 0 2.648438-1.179687 2.648438-2.644531 0-1.46875-1.179688-2.648437-2.648438-2.648437zm0 1.324218c.734375 0 1.324219.589844 1.324219 1.324219 0 .730469-.589844 1.320313-1.324219 1.320313-.730469 0-1.320312-.589844-1.320312-1.320313 0-.734375.589843-1.324219 1.320312-1.324219zm0 0"/><path d="m19.84375 19.023438c-1.464844 0-2.644531 1.179687-2.644531 2.644531 0 1.464843 1.179687 2.648437 2.644531 2.648437 1.46875 0 2.648438-1.183594 2.648438-2.648437 0-1.464844-1.179688-2.644531-2.648438-2.644531zm0 1.320312c.734375 0 1.324219.59375 1.324219 1.324219 0 .734375-.589844 1.324219-1.324219 1.324219-.730469 0-1.320312-.589844-1.320312-1.324219 0-.730469.589843-1.324219 1.320312-1.324219zm0 0"/></g><path d="m137.580612-57.546286 21.15423 21.185477 26.466222-31.778216" fill="none" stroke="#f44336" stroke-linecap="round" stroke-linejoin="round" stroke-width="12" transform="matrix(.125012 0 0 .125012 0 26.877566)"/><path d="m137.580612 5.947651 21.15423 21.185476 26.466222-31.746968" fill="none" stroke="#f44336" stroke-linecap="round" stroke-linejoin="round" stroke-width="12" transform="matrix(.125012 0 0 .125012 0 26.877566)"/></svg>

<?xml version="1.0" encoding="UTF-8"?>
<svg xmlns="http://www.w3.org/2000/svg" xmlns:xlink="http://www.w3.org/1999/xlink" width="64px" height="64px" viewBox="0 0 64 64" version="1.1">
<defs>
<linearGradient id="linear0" gradientUnits="userSpaceOnUse" x1="254" y1="233.5" x2="254" y2="254.666672" gradientTransform="matrix(0.125012,0,0,0.125012,-0.00000763012,26.87757)">
<stop offset="0" style="stop-color:rgb(0%,0%,0%);stop-opacity:0.27451;"/>
<stop offset="1" style="stop-color:rgb(0%,0%,0%);stop-opacity:0;"/>
</linearGradient>
<radialGradient id="radial0" gradientUnits="userSpaceOnUse" cx="450.908936" cy="189.579361" fx="450.908936" fy="189.579361" r="21.166656" gradientTransform="matrix(0.000000348341,-0.156265,-0.281277,-0.000000203077,100.292171,127.190665)">
<stop offset="0" style="stop-color:rgb(0%,0%,0%);stop-opacity:0.313726;"/>
<stop offset="0.222222" style="stop-color:rgb(0%,0%,0%);stop-opacity:0.27451;"/>
<stop offset="1" style="stop-color:rgb(0%,0%,0%);stop-opacity:0;"/>
</radialGradient>
<radialGradient id="radial1" gradientUnits="userSpaceOnUse" cx="450.908936" cy="189.579361" fx="450.908936" fy="189.579361" r="21.166656" gradientTransform="matrix(-0.000000348341,0.156265,0.281277,0.000000203077,-36.786098,-15.054961)">
<stop offset="0" style="stop-color:rgb(0%,0%,0%);stop-opacity:0.313726;"/>
<stop offset="0.222222" style="stop-color:rgb(0%,0%,0%);stop-opacity:0.27451;"/>
<stop offset="1" style="stop-color:rgb(0%,0%,0%);stop-opacity:0;"/>
</radialGradient>
<radialGradient id="radial2" gradientUnits="userSpaceOnUse" cx="450.908936" cy="189.579361" fx="450.908936" fy="189.579361" r="21.166656" gradientTransform="matrix(-0.000000348341,-0.156265,0.281277,-0.000000203077,-36.786098,127.190665)">
<stop offset="0" style="stop-color:rgb(0%,0%,0%);stop-opacity:0.313726;"/>
<stop offset="0.222222" style="stop-color:rgb(0%,0%,0%);stop-opacity:0.27451;"/>
<stop offset="1" style="stop-color:rgb(0%,0%,0%);stop-opacity:0;"/>
</radialGradient>
<radialGradient id="radial3" gradientUnits="userSpaceOnUse" cx="450.908936" cy="189.579361" fx="450.908936" fy="189.579361" r="21.166656" gradientTransform="matrix(0.000000348341,0.156265,-0.281277,0.000000203077,100.292167,-15.054959)">
<stop offset="0" style="stop-color:rgb(0%,0%,0%);stop-opacity:0.313726;"/>
<stop offset="0.222222" style="stop-color:rgb(0%,0%,0%);stop-opacity:0.27451;"/>
<stop offset="1" style="stop-color:rgb(0%,0%,0%);stop-opacity:0;"/>
</radialGradient>
<linearGradient id="linear1" gradientUnits="userSpaceOnUse" x1="323.513245" y1="-141.414581" x2="323.513245" y2="-25.791676" gradientTransform="matrix(0.150699,0,0,0.434824,-11.708026,67.282696)">
<stop offset="0" style="stop-color:rgb(55.29412%,43.137255%,38.82353%);stop-opacity:1;"/>
<stop offset="1" style="stop-color:rgb(47.450981%,33.333334%,28.235295%);stop-opacity:1;"/>
</linearGradient>
<linearGradient id="linear2" gradientUnits="userSpaceOnUse" x1="254" y1="212.333328" x2="254" y2="-115.75" >
<stop offset="0" style="stop-color:rgb(87.843138%,87.843138%,87.843138%);stop-opacity:1;"/>
<stop offset="1" style="stop-color:rgb(93.333334%,93.333334%,93.333334%);stop-opacity:1;"/>
</linearGradient>
<linearGradient id="linear3" gradientUnits="userSpaceOnUse" x1="960" y1="1695.118164" x2="960" y2="175.118134" gradientTransform="matrix(0.0330761,0,0,0.0330761,0,0)">
<stop offset="0" style="stop-color:rgb(25.882354%,25.882354%,25.882354%);stop-opacity:1;"/>
<stop offset="1" style="stop-color:rgb(38.039216%,38.039216%,38.039216%);stop-opacity:1;"/>
</linearGradient>
</defs>
<g id="surface1">
<path style=" stroke:none;fill-rule:nonzero;fill:url(#linear0);" d="M 15.875 56.066406 L 47.628906 56.066406 L 47.628906 58.714844 L 15.875 58.714844 Z M 15.875 56.066406 "/>
<path style=" stroke:none;fill-rule:nonzero;fill:url(#radial0);" d="M 47.628906 56.066406 L 52.921875 56.066406 L 52.921875 53.421875 L 47.628906 53.421875 Z M 47.628906 56.066406 "/>
<path style=" stroke:none;fill-rule:nonzero;fill:url(#radial1);" d="M 15.875 56.066406 L 10.585938 56.066406 L 10.585938 58.714844 L 15.875 58.714844 Z M 15.875 56.066406 "/>
<path style=" stroke:none;fill-rule:nonzero;fill:url(#radial2);" d="M 15.875 56.066406 L 10.585938 56.066406 L 10.585938 53.421875 L 15.875 53.421875 Z M 15.875 56.066406 "/>
<path style=" stroke:none;fill-rule:nonzero;fill:url(#radial3);" d="M 47.628906 56.066406 L 52.921875 56.066406 L 52.921875 58.714844 L 47.628906 58.714844 Z M 47.628906 56.066406 "/>
<path style=" stroke:none;fill-rule:nonzero;fill:url(#linear1);" d="M 13.230469 12.40625 L 50.277344 12.40625 C 51.738281 12.40625 52.921875 13.59375 52.921875 15.054688 L 52.921875 53.421875 C 52.921875 54.882812 51.738281 56.066406 50.277344 56.066406 L 13.230469 56.066406 C 11.769531 56.066406 10.585938 54.882812 10.585938 53.421875 L 10.585938 15.054688 C 10.585938 13.59375 11.769531 12.40625 13.230469 12.40625 Z M 13.230469 12.40625 "/>
<path style=" stroke:none;fill-rule:nonzero;fill:rgb(100%,100%,100%);fill-opacity:0.392157;" d="M 13.230469 12.59375 C 11.765625 12.59375 10.585938 13.773438 10.585938 15.238281 L 10.585938 15.570312 C 10.585938 14.101562 11.765625 12.921875 13.230469 12.921875 L 50.277344 12.921875 C 51.742188 12.921875 52.921875 14.101562 52.921875 15.570312 L 52.921875 15.238281 C 52.921875 13.773438 51.742188 12.59375 50.277344 12.59375 Z M 13.230469 12.59375 "/>
<path style=" stroke:none;fill-rule:nonzero;fill:rgb(0%,0%,0%);fill-opacity:0.196078;" d="M 13.230469 55.917969 C 11.765625 55.917969 10.585938 54.738281 10.585938 53.273438 L 10.585938 52.941406 C 10.585938 54.40625 11.765625 55.585938 13.230469 55.585938 L 50.277344 55.585938 C 51.742188 55.585938 52.921875 54.40625 52.921875 52.941406 L 52.921875 53.273438 C 52.921875 54.738281 51.742188 55.917969 50.277344 55.917969 Z M 13.230469 55.917969 "/>
<path style="fill:none;stroke-width:3;stroke-linecap:round;stroke-linejoin:miter;stroke:rgb(12.941177%,12.941177%,12.941177%);stroke-opacity:1;stroke-miterlimit:4;" d="M 105.833643 -115.759477 L 402.180344 -115.759477 C 413.866728 -115.759477 423.334574 -106.260384 423.334574 -94.574 L 423.334574 212.334192 C 423.334574 224.020576 413.866728 233.488421 402.180344 233.488421 L 105.833643 233.488421 C 94.147259 233.488421 84.679414 224.020576 84.679414 212.334192 L 84.679414 -94.574 C 84.679414 -106.260384 94.147259 -115.759477 105.833643 -115.759477 Z M 105.833643 -115.759477 " transform="matrix(0.125012,0,0,0.125012,0,26.877566)"/>
<path style="fill-rule:nonzero;fill:url(#linear2);stroke-width:3;stroke-linecap:round;stroke-linejoin:round;stroke:rgb(12.941177%,12.941177%,12.941177%);stroke-opacity:1;stroke-miterlimit:4;" d="M 126.987873 -105.166739 L 380.994867 -105.166739 C 386.838059 -105.166739 391.587605 -100.417192 391.587605 -94.574 L 391.587605 201.741453 C 391.587605 207.584645 386.838059 212.334192 380.994867 212.334192 L 126.987873 212.334192 C 121.144681 212.334192 116.426382 207.584645 116.426382 201.741453 L 116.426382 -94.574 C 116.426382 -100.417192 121.144681 -105.166739 126.987873 -105.166739 Z M 126.987873 -105.166739 " transform="matrix(0.125012,0,0,0.125012,0,26.877566)"/>
<path style=" stroke:none;fill-rule:nonzero;fill:url(#linear3);" d="M 23.816406 5.792969 C 23.082031 5.792969 22.492188 6.382812 22.492188 7.113281 L 22.492188 8.4375 L 18.523438 8.4375 C 17.789062 8.4375 17.199219 9.027344 17.199219 9.761719 L 17.199219 15.054688 C 17.199219 15.785156 17.789062 16.375 18.523438 16.375 L 44.984375 16.375 C 45.714844 16.375 46.304688 15.785156 46.304688 15.054688 L 46.304688 9.761719 C 46.304688 9.027344 45.714844 8.4375 44.984375 8.4375 L 41.015625 8.4375 L 41.015625 7.113281 C 41.015625 6.382812 40.425781 5.792969 39.691406 5.792969 Z M 23.816406 5.792969 "/>
<path style=" stroke:none;fill-rule:nonzero;fill:rgb(0%,0%,0%);fill-opacity:0.235294;" d="M 17.199219 15.054688 L 17.199219 16.375 C 17.199219 17.109375 17.789062 17.699219 18.523438 17.699219 L 44.984375 17.699219 C 45.714844 17.699219 46.304688 17.109375 46.304688 16.375 L 46.304688 15.054688 C 46.304688 15.785156 45.714844 16.375 44.984375 16.375 L 18.523438 16.375 C 17.789062 16.375 17.199219 15.785156 17.199219 15.054688 Z M 17.199219 15.054688 "/>
<path style=" stroke:none;fill-rule:nonzero;fill:rgb(100%,100%,100%);fill-opacity:0.313726;" d="M 23.816406 5.792969 C 23.082031 5.792969 22.492188 6.382812 22.492188 7.113281 L 22.492188 7.613281 C 22.492188 6.878906 23.082031 6.289062 23.816406 6.289062 L 39.691406 6.289062 C 40.425781 6.289062 41.015625 6.878906 41.015625 7.613281 L 41.015625 7.113281 C 41.015625 6.382812 40.425781 5.792969 39.691406 5.792969 Z M 18.523438 8.4375 C 17.789062 8.4375 17.199219 9.027344 17.199219 9.761719 L 17.199219 10.257812 C 17.199219 9.523438 17.789062 8.933594 18.523438 8.933594 L 22.492188 8.933594 L 22.492188 8.4375 Z M 41.015625 8.4375 L 41.015625 8.933594 L 44.984375 8.933594 C 45.714844 8.933594 46.304688 9.523438 46.304688 10.257812 L 46.304688 9.761719 C 46.304688 9.027344 45.714844 8.4375 44.984375 8.4375 Z M 41.015625 8.4375 "/>
<path style="fill:none;stroke-width:11.338583;stroke-linecap:round;stroke-linejoin:round;stroke:rgb(12.941177%,12.941177%,12.941177%);stroke-opacity:1;stroke-miterlimit:4;" d="M 720.049387 175.140764 C 697.846781 175.140764 680.013838 192.973708 680.013838 215.058214 L 680.013838 255.093763 L 560.02529 255.093763 C 537.822685 255.093763 519.989741 272.926707 519.989741 295.129312 L 519.989741 455.153409 C 519.989741 477.237916 537.822685 495.070859 560.02529 495.070859 L 1360.027676 495.070859 C 1382.112182 495.070859 1399.945126 477.237916 1399.945126 455.153409 L 1399.945126 295.129312 C 1399.945126 272.926707 1382.112182 255.093763 1360.027676 255.093763 L 1240.039128 255.093763 L 1240.039128 215.058214 C 1240.039128 192.973708 1222.206184 175.140764 1200.003579 175.140764 Z M 720.049387 175.140764 " transform="matrix(0.0330761,0,0,0.0330761,0,0)"/>
<path style=" stroke:none;fill-rule:nonzero;fill:rgb(0%,0%,0%);fill-opacity:0.235294;" d="M 14.554688 52.097656 L 14.554688 52.761719 C 14.554688 53.492188 15.144531 54.082031 15.875 54.082031 L 47.628906 54.082031 C 48.363281 54.082031 48.953125 53.492188 48.953125 52.761719 L 48.953125 52.097656 C 48.953125 52.832031 48.363281 53.421875 47.628906 53.421875 L 15.875 53.421875 C 15.144531 53.421875 14.554688 52.832031 14.554688 52.097656 Z M 14.554688 52.097656 "/>
<path style=" stroke:none;fill-rule:nonzero;fill:rgb(47.058824%,56.470591%,61.176473%);fill-opacity:1;" d="M 25.136719 20.34375 L 44.984375 20.34375 C 45.714844 20.34375 46.304688 20.9375 46.304688 21.667969 C 46.304688 22.398438 45.714844 22.992188 44.984375 22.992188 L 25.136719 22.992188 C 24.40625 22.992188 23.816406 22.398438 23.816406 21.667969 C 23.816406 20.9375 24.40625 20.34375 25.136719 20.34375 Z M 25.136719 20.34375 "/>
<path style=" stroke:none;fill-rule:nonzero;fill:rgb(47.058824%,56.470591%,61.176473%);fill-opacity:1;" d="M 25.136719 28.285156 L 44.984375 28.285156 C 45.714844 28.285156 46.304688 28.875 46.304688 29.605469 C 46.304688 30.335938 45.714844 30.929688 44.984375 30.929688 L 25.136719 30.929688 C 24.40625 30.929688 23.816406 30.335938 23.816406 29.605469 C 23.816406 28.875 24.40625 28.285156 25.136719 28.285156 Z M 25.136719 28.285156 "/>
<path style=" stroke:none;fill-rule:nonzero;fill:rgb(47.058824%,56.470591%,61.176473%);fill-opacity:1;" d="M 25.136719 36.222656 L 44.984375 36.222656 C 45.714844 36.222656 46.304688 36.816406 46.304688 37.546875 C 46.304688 38.277344 45.714844 38.867188 44.984375 38.867188 L 25.136719 38.867188 C 24.40625 38.867188 23.816406 38.277344 23.816406 37.546875 C 23.816406 36.816406 24.40625 36.222656 25.136719 36.222656 Z M 25.136719 36.222656 "/>
<path style=" stroke:none;fill-rule:nonzero;fill:rgb(47.058824%,56.470591%,61.176473%);fill-opacity:1;" d="M 25.136719 44.160156 L 44.984375 44.160156 C 45.714844 44.160156 46.304688 44.707031 46.304688 45.382812 L 46.304688 45.582031 C 46.304688 46.257812 45.714844 46.804688 44.984375 46.804688 L 25.136719 46.804688 C 24.40625 46.804688 23.816406 46.257812 23.816406 45.582031 L 23.816406 45.382812 C 23.816406 44.707031 24.40625 44.160156 25.136719 44.160156 Z M 25.136719 44.160156 "/>
<path style=" stroke:none;fill-rule:nonzero;fill:rgb(47.058824%,56.470591%,61.176473%);fill-opacity:1;" d="M 19.84375 26.960938 C 18.378906 26.960938 17.199219 28.140625 17.199219 29.605469 C 17.199219 31.074219 18.378906 32.253906 19.84375 32.253906 C 21.3125 32.253906 22.492188 31.074219 22.492188 29.605469 C 22.492188 28.140625 21.3125 26.960938 19.84375 26.960938 Z M 19.84375 28.285156 C 20.578125 28.285156 21.167969 28.875 21.167969 29.605469 C 21.167969 30.339844 20.578125 30.929688 19.84375 30.929688 C 19.113281 30.929688 18.523438 30.339844 18.523438 29.605469 C 18.523438 28.875 19.113281 28.285156 19.84375 28.285156 Z M 19.84375 28.285156 "/>
<path style=" stroke:none;fill-rule:nonzero;fill:rgb(47.058824%,56.470591%,61.176473%);fill-opacity:1;" d="M 19.84375 34.898438 C 18.378906 34.898438 17.199219 36.078125 17.199219 37.546875 C 17.199219 39.011719 18.378906 40.191406 19.84375 40.191406 C 21.3125 40.191406 22.492188 39.011719 22.492188 37.546875 C 22.492188 36.078125 21.3125 34.898438 19.84375 34.898438 Z M 19.84375 36.222656 C 20.578125 36.222656 21.167969 36.8125 21.167969 37.546875 C 21.167969 38.277344 20.578125 38.867188 19.84375 38.867188 C 19.113281 38.867188 18.523438 38.277344 18.523438 37.546875 C 18.523438 36.8125 19.113281 36.222656 19.84375 36.222656 Z M 19.84375 36.222656 "/>
<path style=" stroke:none;fill-rule:nonzero;fill:rgb(47.058824%,56.470591%,61.176473%);fill-opacity:1;" d="M 19.84375 42.835938 C 18.378906 42.835938 17.199219 44.015625 17.199219 45.484375 C 17.199219 46.949219 18.378906 48.128906 19.84375 48.128906 C 21.3125 48.128906 22.492188 46.949219 22.492188 45.484375 C 22.492188 44.015625 21.3125 42.835938 19.84375 42.835938 Z M 19.84375 44.160156 C 20.578125 44.160156 21.167969 44.75 21.167969 45.484375 C 21.167969 46.214844 20.578125 46.804688 19.84375 46.804688 C 19.113281 46.804688 18.523438 46.214844 18.523438 45.484375 C 18.523438 44.75 19.113281 44.160156 19.84375 44.160156 Z M 19.84375 44.160156 "/>
<path style=" stroke:none;fill-rule:nonzero;fill:rgb(47.058824%,56.470591%,61.176473%);fill-opacity:1;" d="M 19.84375 19.023438 C 18.378906 19.023438 17.199219 20.203125 17.199219 21.667969 C 17.199219 23.132812 18.378906 24.316406 19.84375 24.316406 C 21.3125 24.316406 22.492188 23.132812 22.492188 21.667969 C 22.492188 20.203125 21.3125 19.023438 19.84375 19.023438 Z M 19.84375 20.34375 C 20.578125 20.34375 21.167969 20.9375 21.167969 21.667969 C 21.167969 22.402344 20.578125 22.992188 19.84375 22.992188 C 19.113281 22.992188 18.523438 22.402344 18.523438 21.667969 C 18.523438 20.9375 19.113281 20.34375 19.84375 20.34375 Z M 19.84375 20.34375 "/>
<path style="fill:none;stroke-width:12;stroke-linecap:round;stroke-linejoin:round;stroke:rgb(95.686275%,26.274511%,21.176471%);stroke-opacity:1;stroke-miterlimit:4;" d="M 137.580612 -57.546286 L 158.734842 -36.360809 L 185.201064 -68.139025 " transform="matrix(0.125012,0,0,0.125012,0,26.877566)"/>
<path style="fill:none;stroke-width:12;stroke-linecap:round;stroke-linejoin:round;stroke:rgb(95.686275%,26.274511%,21.176471%);stroke-opacity:1;stroke-miterlimit:4;" d="M 137.580612 5.947651 L 158.734842 27.133127 L 185.201064 -4.613841 " transform="matrix(0.125012,0,0,0.125012,0,26.877566)"/>
</g>
</svg>
